X: 18188
T: Humours Of Garrykennedy, The
R: hornpipe
M: 4/4
K: Gmajor
|:(3DEF|G2 dB ed^cd|BG G2 DGBG|cBce a2 (3gfe|(3ded ^ce d2 B=c|
dg g2 bgdB|c2 ec dBGB|AD (3FGA d^ced|cD (3DEF G2:|
|:Bc|dg g2 dgfg|dB B2 DG (3Bcd|ceAG FAd^c|ed^ce d2 B=c|
dgbg dGBG|A^GAB c2 a=g|fed^c =cD (3DEF|(3GAG FA G2:|

